X:30
T:Scott Skinner
% One cannot avoid the feeling that this attribution is how J.S.S. lived, psychologically:
C: By Himself
R: reel
Q: 1/4=136
M:2/4
L:1/16
Z: Jason R. Fruit <jason@gmail.com>
U: N=!tenuto!
K:A
(!ff!e/f/g/) | a2(ga) ecAF | EAGA cBBg | {g}!>!a2(ga) ecAa | ecdB cAAg | {g}a2(ga) ecAF |
EAGA cBBc | !<(!AcBd ced!<)!f | ecdB cAA || e |c/c/c (Ae) c/c/c (Aa) | EAGA cBBe |
c/c/c (Ae) ceAa | ecdB cAAe |c/c/c (Ae) c/c/c (Aa) | EAGA cBBg | {g}!f!!<(!a2(g!<)!a) ecAF | N.EN.CN.DN.B, .NC.NA,.NA, |]

